X: 1037
T: Woody's Rag
C:Woody Guthrie, 1957
B: jims roots
M:4/4
L:1/8
Q: 1/4=100
K:D
V:1 
"D"=F^F A d3 dd | =F^F A d3 dd | "G"^A,B, D G3 GG | ^A,B, D G3 GG |
"D"=F^F A d3 dd | =F^F A d3 dd | "A"=c^c e a3 aa | =c^c e a3 aa |
"D"=F^F A d3 dd | =F^F A d3 dd | "G"^A,B, D G3 GG | ^A,B, D G3-GG |
"D"=F^F A d3 dd | "A"=c^c e a3 aa | "D"=F^F A "A"d3 A c2 | "D"(d2 [d)F][dF] [d4F4] |
% abcbook-tune_id 6298c29760b40c0f116ad0d3


% abcbook-boost 0
% abcbook-tablature 
% abcbook-transpose 
% abcbook-lastupdated 1654178457093
% abcbook-soundfonts 
% abcbook-repeats 1


